PortableApps/LibreOfficePortable/App/libreoffice/help/media/icon-themes/res/notebookbar.svg

<svg viewBox="0 0 16 16" xmlns="http://www.w3.org/2000/svg"><path d="m1 2v2h14v-2zm0 5v2h14v-2zm0 5v2h14v-2z" fill="#505050"/></svg>

<svg viewBox="0 0 16 16" xmlns="http://www.w3.org/2000/svg"><path d="M 1 2 L 1 4 L 15 4 L 15 2 L 1 2 z M 1 7 L 1 9 L 15 9 L 15 7 L 1 7 z M 1 12 L 1 14 L 15 14 L 15 12 L 1 12 z " fill="#505050"/></svg>
